!!!OTL: WIR WOLLN EINMAL SPAZIEREN GEHN
!!!ARE: Europa, Mitteleuropa, Deutschland, Rheinland
!!!SCT: K2372
!!!YEM: Copyright 1995, estate of Helmut Schaffrath.
**kern
*ICvox
*Ivox
*M2/4
*k[f#]
*G:
{8d
=1
8g
8g
8g
8g
=2
8g
8e
8d}
{8d
=3
8a
8a
8dd
8dd
=4
4b
8g}
{8d
=5
8g
8g
8g
8g
=6
8g
8e
8d}
{8d
=7
8a
8a
8dd
8dd
=8
4b
8g}
{8g
=9
8a
8a
8f#
8d
=10
8a
8a
8f#}
{8g
=11
8a
8a
8f#
8d
=12
8a
8a
8f#}
{8d
=13
4g
4b
=14
4dd
8r}
{8b
=15
4dd
4b
=16
4g
8r}
==
!!!AGN: Kinder - Lied, Tanz -, Lauf - Spiel
!!!ONB: ESAC (Essen Associative Code) Database: KINDER
!!!AMT: simple duple
!!!AIN: vox
!!!EED: Helmut Schaffrath
!!!EEV: 1.0
*-
